X:1
T:Title
%%score { ( 1 3 ) | ( 2 4 ) }
L:1/8
Q:1/4=100
M:4/4
K:Bb
V:1 treble nm="Grand Piano"
V:3 treble 
V:2 bass 
V:4 bass 
V:1
 [DF]3 [DF] [_D=E][=DF][_EG][EA] | [DB]4 [DF]4 | [EG]3 [GB] [FA]GF[Fd] | c6[K:bass] z2 | %4
w: Asa~Hull * * * * *||||
 [DF]3 [DF] [_D=E][=DF][_EG][EA] | [DB]4 [Fd]4 | [EG]3 [Gc] BAGA | [DB]6 z2 | %8
w: ||||
 [DF]2 [B,D][DF] [DB]4 | c2 z2 z4 | [GB]2 [FA][EG] [DF][EG] [DF]2 | z4 c4[K:bass] | %12
w: ||||
 [DF]2 [B,D][DF] [DB]4 | c2 z2 z4 | [GB]2 [FA][EG] [DF][EG][DF][FB] | [Fd]2 [Ec]2 [DB]4 |] %16
w: ||||
V:2
 [B,,B,]3 [B,,B,] [B,,B,][B,,B,][B,,B,][B,,F,] | [B,,F,]4 [B,,B,]4 | %2
 [E,B,]3 [E,B,] [E,B,][E,B,E][D,B,][B,,B,] | [F,A,F]6 z2 | %4
 [B,,B,]3 [B,,B,] [B,,B,][B,,B,][B,,B,][B,,F,] | [B,,F,]4 [B,,B,]4 | %6
 [E,B,]3 [E,E] [F,DF][F,CE][F,CE][F,CE] | [B,,B,]6 z2 | [B,,B,]2 [B,,F,][B,,B,] [B,,B,]4 | %9
 .[F,A,F]2 [D,B,][K:treble][F,A,F] [B,F]4 | [E,B,]2 [E,B,][E,B,] [B,,B,][B,,B,] [B,,B,]2 | %11
 z4 [A,F]4 | [B,,B,]2 [B,,F,][B,,B,] [B,,B,]4 | .[F,A,F]2 [D,B,][K:treble][F,A,F] [B,F]4 | %14
 [E,B,]2 [E,B,][E,B,] [B,,B,][B,,B,][B,,B,][D,B,] | [F,B,]2 [F,A,]2 [B,,B,]4 |] %16
V:3
 x8 | x8 | x8 | z4 z[K:bass] E,D,C, | x8 | x8 | x8 | x8 | x8 | z D,[FB]c d4 | x8 | %11
 B2 cd z[K:bass] E,D,C, | x8 | z E,[FB]c d4 | x8 | x8 |] %16
V:4
 x8 | x8 | x8 | x8 | x8 | x8 | x8 | x8 | x8 | x3[K:treble] x5 | x8 | %11
 [G,B,D]2 [F,A,F][F,B,F] .F,2 z2 | x8 | x3[K:treble] x5 | x8 | x8 |] %16

